images/logo.svg

<svg width="66" height="71" xmlns="http://www.w3.org/2000/svg" fill="none">
 <g>
  <title>Layer 1</title>
  <path d="m24.2775,19.80538c0.8223,-3.0682 3.9762,-6.2221 7.0445,-7.0444l19.1289,-5.12637c3.0683,-0.82227 4.889,0.99848 4.0668,4.06677l-5.1264,19.129c-0.8223,3.0682 -3.9762,6.2221 -7.0444,7.0444l-19.129,5.1264c-3.0683,0.8222 -4.889,-0.9985 -4.0668,-4.0668l5.1264,-19.129z" fill="#B8B8FF" id="svg_2"/>
  <path d="m16.6088,12.6493c0.8223,-3.06823 3.9762,-6.22213 7.0445,-7.04439l19.1289,-5.12637c3.0683,-0.82226 4.8891,0.99848 4.0668,4.06675l-5.1264,19.12901c-0.8222,3.0682 -3.9761,6.2221 -7.0444,7.0444l-19.129,5.1264c-3.0683,0.8222 -4.889,-0.9985 -4.0668,-4.0668l5.1264,-19.129z" fill="#5051F9" id="svg_3"/>
  <text font-weight="bold" transform="matrix(1.16057 0 0 0.738325 -24.8693 9.92468)" stroke="#000" xml:space="preserve" text-anchor="start" font-family="'Roboto Mono'" font-size="18" id="svg_1" y="70.93635" x="23.57058" stroke-width="0" fill="#000000">Habit</text>
 </g>

</svg>

<svg width="66" height="71" viewBox="0 0 66 71" fill="none" xmlns="http://www.w3.org/2000/svg">
<path d="M2.736 67C2.472 67 2.25 66.91 2.07 66.73C1.89 66.55 1.8 66.328 1.8 66.064V53.878C1.8 53.602 1.89 53.38 2.07 53.212C2.25 53.032 2.472 52.942 2.736 52.942C3.012 52.942 3.234 53.032 3.402 53.212C3.582 53.38 3.672 53.602 3.672 53.878V59.044H12.024V53.878C12.024 53.602 12.114 53.38 12.294 53.212C12.474 53.032 12.696 52.942 12.96 52.942C13.236 52.942 13.458 53.032 13.626 53.212C13.794 53.38 13.878 53.602 13.878 53.878V66.064C13.878 66.328 13.794 66.55 13.626 66.73C13.458 66.91 13.236 67 12.96 67C12.696 67 12.474 66.91 12.294 66.73C12.114 66.55 12.024 66.328 12.024 66.064V60.7H3.672V66.064C3.672 66.328 3.582 66.55 3.402 66.73C3.234 66.91 3.012 67 2.736 67ZM21.4037 67.072C20.5277 67.072 19.7417 66.856 19.0457 66.424C18.3497 65.98 17.7977 65.386 17.3897 64.642C16.9937 63.886 16.7957 63.034 16.7957 62.086C16.7957 61.138 17.0117 60.286 17.4437 59.53C17.8877 58.774 18.4817 58.18 19.2257 57.748C19.9817 57.304 20.8277 57.082 21.7637 57.082C22.6997 57.082 23.5397 57.304 24.2837 57.748C25.0277 58.18 25.6157 58.774 26.0477 59.53C26.4917 60.286 26.7137 61.138 26.7137 62.086H26.0117C26.0117 63.034 25.8077 63.886 25.3997 64.642C25.0037 65.386 24.4577 65.98 23.7617 66.424C23.0657 66.856 22.2797 67.072 21.4037 67.072ZM21.7637 65.452C22.3757 65.452 22.9217 65.308 23.4017 65.02C23.8817 64.72 24.2597 64.318 24.5357 63.814C24.8117 63.298 24.9497 62.722 24.9497 62.086C24.9497 61.438 24.8117 60.862 24.5357 60.358C24.2597 59.842 23.8817 59.44 23.4017 59.152C22.9217 58.852 22.3757 58.702 21.7637 58.702C21.1637 58.702 20.6177 58.852 20.1257 59.152C19.6457 59.44 19.2617 59.842 18.9737 60.358C18.6977 60.862 18.5597 61.438 18.5597 62.086C18.5597 62.722 18.6977 63.298 18.9737 63.814C19.2617 64.318 19.6457 64.72 20.1257 65.02C20.6177 65.308 21.1637 65.452 21.7637 65.452ZM25.7957 67.018C25.5317 67.018 25.3097 66.934 25.1297 66.766C24.9617 66.586 24.8777 66.364 24.8777 66.1V63.346L25.2197 61.438L26.7137 62.086V66.1C26.7137 66.364 26.6237 66.586 26.4437 66.766C26.2757 66.934 26.0597 67.018 25.7957 67.018ZM34.3962 67.072C33.4602 67.072 32.6202 66.856 31.8762 66.424C31.1322 65.98 30.5442 65.38 30.1122 64.624C29.6802 63.868 29.4582 63.016 29.4462 62.068V53.86C29.4462 53.584 29.5302 53.362 29.6982 53.194C29.8782 53.026 30.1002 52.942 30.3642 52.942C30.6402 52.942 30.8622 53.026 31.0302 53.194C31.1982 53.362 31.2822 53.584 31.2822 53.86V58.72C31.7022 58.216 32.2062 57.82 32.7942 57.532C33.3942 57.232 34.0482 57.082 34.7562 57.082C35.6322 57.082 36.4182 57.304 37.1142 57.748C37.8102 58.18 38.3562 58.774 38.7522 59.53C39.1602 60.274 39.3642 61.12 39.3642 62.068C39.3642 63.016 39.1422 63.868 38.6982 64.624C38.2662 65.38 37.6782 65.98 36.9342 66.424C36.1902 66.856 35.3442 67.072 34.3962 67.072ZM34.3962 65.452C35.0082 65.452 35.5542 65.308 36.0342 65.02C36.5142 64.72 36.8922 64.312 37.1682 63.796C37.4562 63.28 37.6002 62.704 37.6002 62.068C37.6002 61.42 37.4562 60.844 37.1682 60.34C36.8922 59.836 36.5142 59.44 36.0342 59.152C35.5542 58.852 35.0082 58.702 34.3962 58.702C33.7962 58.702 33.2502 58.852 32.7582 59.152C32.2782 59.44 31.9002 59.836 31.6242 60.34C31.3482 60.844 31.2102 61.42 31.2102 62.068C31.2102 62.704 31.3482 63.28 31.6242 63.796C31.9002 64.312 32.2782 64.72 32.7582 65.02C33.2502 65.308 33.7962 65.452 34.3962 65.452ZM47.0524 67.072C46.1164 67.072 45.2764 66.856 44.5324 66.424C43.7884 65.98 43.2004 65.38 42.7684 64.624C42.3364 63.868 42.1144 63.016 42.1024 62.068V53.86C42.1024 53.584 42.1864 53.362 42.3544 53.194C42.5344 53.026 42.7564 52.942 43.0204 52.942C43.2964 52.942 43.5184 53.026 43.6864 53.194C43.8544 53.362 43.9384 53.584 43.9384 53.86V58.72C44.3584 58.216 44.8624 57.82 45.4504 57.532C46.0504 57.232 46.7044 57.082 47.4124 57.082C48.2884 57.082 49.0744 57.304 49.7704 57.748C50.4664 58.18 51.0124 58.774 51.4084 59.53C51.8164 60.274 52.0204 61.12 52.0204 62.068C52.0204 63.016 51.7984 63.868 51.3544 64.624C50.9224 65.38 50.3344 65.98 49.5904 66.424C48.8464 66.856 48.0004 67.072 47.0524 67.072ZM47.0524 65.452C47.6644 65.452 48.2104 65.308 48.6904 65.02C49.1704 64.72 49.5484 64.312 49.8244 63.796C50.1124 63.28 50.2564 62.704 50.2564 62.068C50.2564 61.42 50.1124 60.844 49.8244 60.34C49.5484 59.836 49.1704 59.44 48.6904 59.152C48.2104 58.852 47.6644 58.702 47.0524 58.702C46.4524 58.702 45.9064 58.852 45.4144 59.152C44.9344 59.44 44.5564 59.836 44.2804 60.34C44.0044 60.844 43.8664 61.42 43.8664 62.068C43.8664 62.704 44.0044 63.28 44.2804 63.796C44.5564 64.312 44.9344 64.72 45.4144 65.02C45.9064 65.308 46.4524 65.452 47.0524 65.452ZM55.8567 67C55.5927 67 55.3707 66.916 55.1907 66.748C55.0227 66.568 54.9387 66.346 54.9387 66.082V58.072C54.9387 57.796 55.0227 57.574 55.1907 57.406C55.3707 57.238 55.5927 57.154 55.8567 57.154C56.1327 57.154 56.3547 57.238 56.5227 57.406C56.6907 57.574 56.7747 57.796 56.7747 58.072V66.082C56.7747 66.346 56.6907 66.568 56.5227 66.748C56.3547 66.916 56.1327 67 55.8567 67ZM55.8567 55.552C55.5327 55.552 55.2507 55.438 55.0107 55.21C54.7827 54.97 54.6687 54.688 54.6687 54.364C54.6687 54.04 54.7827 53.764 55.0107 53.536C55.2507 53.296 55.5327 53.176 55.8567 53.176C56.1807 53.176 56.4567 53.296 56.6847 53.536C56.9247 53.764 57.0447 54.04 57.0447 54.364C57.0447 54.688 56.9247 54.97 56.6847 55.21C56.4567 55.438 56.1807 55.552 55.8567 55.552ZM63.7723 67C63.1723 67 62.6323 66.85 62.1523 66.55C61.6723 66.238 61.2943 65.818 61.0183 65.29C60.7423 64.762 60.6043 64.168 60.6043 63.508V54.922C60.6043 54.658 60.6883 54.442 60.8563 54.274C61.0243 54.106 61.2403 54.022 61.5043 54.022C61.7683 54.022 61.9843 54.106 62.1523 54.274C62.3203 54.442 62.4043 54.658 62.4043 54.922V63.508C62.4043 63.988 62.5363 64.39 62.8003 64.714C63.0643 65.038 63.3883 65.2 63.7723 65.2H64.3843C64.6003 65.2 64.7803 65.284 64.9243 65.452C65.0803 65.62 65.1583 65.836 65.1583 66.1C65.1583 66.364 65.0563 66.58 64.8523 66.748C64.6603 66.916 64.4083 67 64.0963 67H63.7723ZM59.7763 59.062C59.5243 59.062 59.3203 58.99 59.1643 58.846C59.0083 58.702 58.9303 58.522 58.9303 58.306C58.9303 58.066 59.0083 57.874 59.1643 57.73C59.3203 57.586 59.5243 57.514 59.7763 57.514H63.9343C64.1863 57.514 64.3903 57.586 64.5463 57.73C64.7023 57.874 64.7803 58.066 64.7803 58.306C64.7803 58.522 64.7023 58.702 64.5463 58.846C64.3903 58.99 64.1863 59.062 63.9343 59.062H59.7763Z" fill="black"/>
<path d="M24.2775 20.3182C25.0998 17.25 28.2537 14.0961 31.322 13.2738L50.4509 8.14743C53.5192 7.32516 55.3399 9.14591 54.5177 12.2142L49.3913 31.3432C48.569 34.4114 45.4151 37.5653 42.3469 38.3876L23.2179 43.514C20.1496 44.3362 18.3289 42.5155 19.1511 39.4472L24.2775 20.3182Z" fill="#B8B8FF"/>
<path d="M16.6088 12.6493C17.4311 9.58107 20.585 6.42717 23.6533 5.60491L42.7822 0.47854C45.8505 -0.343725 47.6713 1.47702 46.849 4.54529L41.7226 23.6743C40.9004 26.7425 37.7465 29.8964 34.6782 30.7187L15.5492 35.8451C12.4809 36.6673 10.6602 34.8466 11.4824 31.7783L16.6088 12.6493Z" fill="#5051F9"/>
</svg>
